X:8
T:Polska i G efter John-Erik Mattson, Digerberget
A:Rtan, s. Jmtland
O:Sweden
Z:Lennart Sohlman, lta, Sweden
M:3/4
L:1/8
Q:1/4=150
K:G
DG Bz/D/ GB|{B}d2 d4|de/d/ c2 B2|Az/F/ D4|\
D>F Az/D/ FA|(AB) c3 z/(d/|c)B B2 (AG)|B2 G4|\
DG Bz/D/ GB|{B}d2 d4|{e}(3dcB {B}c2 cd|(de) e4|\
ed dz/g/ Bz/d/|dz/B/ cz/B/ A2|(AB) cA FD|{D}G2 G4::
Bd g2 g2-|ga/g/ f2 f2-|fg/f/ e2 e2|{g}f/e/f d2 d>(e|\
d/)c/B {B}c2 c2-|cd/c/ BA G2|GA/G/ FD FA|(AG) G4|\
Bd g2 g2-|ga/g/ f2 f2-|fg/f/ e2 e2|{g}f/e/f d2 d>(e|\
d/)c/B {B}c2 c2-|cd/c/ Bd g2|ga/g/ fd fa|(ag) g4:|\
T:Andrastmma
G,B, Dz/B,/ DG|B2 B4|Bc/B/ A2 G2|Fz/D/ A,4|\
A,>D Fz/A,/ DF|(FG) A3 z/(B/|A)G G2 (FD)|D2 B,4|\
G,B, Dz/B,/ DG|B2 B4|{c}(3BAG {G}E2 AB|(Bc) c4|\
cB Bz/B/ Gz/B/|Bz/G/ Az/G/ F2|(FG) AD CA,|{A,}[B,2D2][B,4D4]::\
DG B2 B2-|Bc/B/ d2 d2-|de/d/ c2 c2| {e}d/c/d B2 B>(c|\
B/)A/G {G}E2 E2-|EB/A/ GF D2|Bc/B/ AF DC|(CB,) B,4|\
DG B2 B2-|Bc/B/ d2 d2-|de/d/ c2 c2| {e}d/c/d B2 B>(c|\
B/)A/G {G}E2 E2-|EB/A/ GB B2|Bc/B/ AF Ac|(cB) B4:|
